X:1
T:Old Tom of Oxford
M:4/4
R:Reel
L:1/8
K:D
A2 Bc d2 A2 | G2 F2 E4 | DEFG A2 d2 | c2 d2 e2 cB |
A2 Bc d2 A2 | G2 F2 E2 (3ABc | d2 A2 G2 F2 | E4 D4 :|
F2 A2 F2 A2 | F2 A2 dcBA | G2 B2 G2 B2 | G2 B2 dcBA |
FF A2 F2 G2 | A2 Bc d2 (3ABc | d2 A2 G2 F2 | E4 D4 :|
